X:1
T:A Thousand Years, O Blessèd Story
T:A Thousand Years, O Blessèd Story
T:Daniel Brink Towner
T:Gustaves E. Hiller, 1917
T:Public Domain Courtesy of the Cyber Hymnal™
T:Public Domain Courtesy of the Cyber Hymnal™
C:Daniel Brink Towner
Z:Public Domain
Z:Courtesy of the Cyber Hymnal™
%%score ( 1 2 ) ( 3 4 )
L:1/8
Q:1/4=103
M:4/4
K:Bb
V:1 treble 
V:2 treble 
V:3 bass 
V:4 bass 
V:1
 (3FGA x | B2 F2 D2 [EF]2 | [DB]2 [DB]4 (3GAB x | c2 A2 G2 F2 | [Fd]6 (3[Fd][Fd][Fd] x | %5
w: 1.~Je- sus shall|reign— re- joice, ye|na- tions, E- cho it|through this vale of|tears! Je- sus shall|
w: 2.~When He shall|reign o’er all the|king- doms, Ha- treds and|wars will be no|more; Peace will pre-|
w: 3.~Lift up your|heads, ye strug- gling|toil- ers! For your re-|demp- tion draw- eth|nigh. Glo- ry to|
w: 4.~’Tis the new|day whose gold- en|twi- light A- bra- ham|was so glad to|see; ’Tis the glad|
 d2 [DA]2 [DB]2 G2 | [^Fd]2 [Fd]4 (3[Fd][Fd][Fd] | [Fc]2 [FA]2 [GB]2 [=EG]2 | F4- F || %9
w: reign a- midst His|peo- ple, Reign on the|earth a thou- sand|years. *|
w: vail, and raise her|ban- ners O- ver the|earth from shore to|shore. *|
w: God, the King is|com- ing; Jus- tice shall|reign be- neath the|sky. *|
w: age when truth shall|tri- umph; ’Tis the great|Year of Ju- bi-|lee! *|
"^Refrain" FGA | B2 [FB]2 [Fc]3 [FB] | [FB]2 [FA]3 F[FA][FB] | [Fc]2 [Fc]2 [Fd]3 [Fe] | %13
w: ||||
w: ||||
w: ||||
w: ||||
 [Fd]4- [Fd]F[FB][Fc] | [Bd]2 [Bd]2 [Ac]2 [_Ad]2 | [Gf]2 [Ge]3 [Ge][Gd][Gc] | %16
w: |||
w: |||
w: |||
w: |||
 [FB]2 [Fd]2 !fermata![Af]2 !fermata!f2 | [FB]6 |] %18
w: ||
w: ||
w: ||
w: ||
V:2
 FGA | B2 F2 D2 x2 | x6 GAB | c2 A2 G2 F2 | x9 | (GD) x3 G2 x | x8 | x8 | F4- F || FGA | B2 x6 | %11
 x5 F x2 | x8 | x5 F x2 | x8 | x8 | x6 AF | x6 |] %18
V:3
 F,G,A, | B,2 F,2 D,2 F,2 | [B,,F,]2 [B,,F,]4 G,A,B, | C2 A,2 G,2 [F,A,]2 | B,6 B,B,B, | %5
w: ~ ~ ~|~ ~ ~ ~|~ ~ ~ ~ ~|~ ~ ~ ~|~ ~ ~ ~|
 [G,B,]2 [^F,C]2 [G,B,]2 [G,B,]2 | [D,A,]2 [D,A,]4 (3[D,A,][D,A,][D,A,] | %7
w: ~ ~ ~ ~|~ ~ ~ ~ ~|
 [C,A,]2 [C,C]2 [=E,C]2 [C,B,]2 | [F,A,]4- [F,A,] || F,G,A, | B,2 [B,D]2 [A,E]3 [B,D] | %11
w: ~ ~ ~ ~|~ *|A thou- sand|years, O bless- èd|
 [F,D]2 [F,C]3 [F,A,][E,C][D,B,] | [C,A,]2 [F,A,]2 [F,B,]3 [F,C] | %13
w: sto- ry! Sung to the|world by an- cient|
 [B,,B,]4- [B,,B,][B,D][B,D][B,E] | [B,F]2 [B,F]2 [F,F]2 [B,F]2 | %15
w: seers; * Je- sus will|come in power and|
 [E,E]2 [E,B,]3 [E,B,][E,B,][E,E] | [F,D]2 [F,B,]2 !fermata![F,C]2 !fermata![F,E]2 | [B,D]6 |] %18
w: glo- ry, And He will|reign a thou- sand|years.|
V:4
 (3F,G,A, x | B,2 F,2 D,2 F,2 | x6 (3G,A,B, x | C2 A,2 G,2 x2 | B,6 (3B,B,B, x | x8 | x8 | x8 | %8
 x5 || F,G,A, | B,2 x6 | x8 | x8 | x8 | x8 | x8 | x8 | x6 |] %18

